X: 1
T: Mickey Dan's
M: 6/8
L: 1/8
R: jig
K: Emin
|: ~E3 B2 e | ~c3 e2 g | dfd Adf | gfd edB |
~E3 B2 e | ~c3 e2 g | dfd Adf | gfd e3 :|
|: ~b3 ebe' | ~b3 e'B^c | ded AFD | Adf afd |
[1 eBB eBB | dAA dAA | ~G3 FDf | ged e3 :|
[2 b ~c'3 e'e' | c'3 e'c'c' | ~b3 ~a3 | ged e2A ||
|: ~B3 gBg | ~B3 gBg | ~A3 fAf | ~A3 fAf |
[1 ~B3 ~g3 | ~b3 e'3 | afd Adf | ged e2A :|
[2 efe ded | cdc B3 | ^A3 =ABA | GAG FED ||
